images/footer/linkedin.svg

<svg width="31" height="31" viewBox="0 0 31 31" fill="none" xmlns="http://www.w3.org/2000/svg">
<path d="M7.02344 31V10.5605H0.666016V31H7.02344ZM3.81055 7.82617C5.86133 7.82617 7.50195 6.11719 7.50195 4.06641C7.50195 2.08398 5.86133 0.443359 3.81055 0.443359C1.82812 0.443359 0.1875 2.08398 0.1875 4.06641C0.1875 6.11719 1.82812 7.82617 3.81055 7.82617ZM30.7441 31H30.8125V19.7891C30.8125 14.3203 29.582 10.082 23.1562 10.082C20.0801 10.082 18.0293 11.791 17.1406 13.3633H17.0723V10.5605H10.9883V31H17.3457V20.8828C17.3457 18.2168 17.8242 15.6875 21.1055 15.6875C24.3867 15.6875 24.4551 18.6953 24.4551 21.0879V31H30.7441Z" fill="white"/>
</svg>

<svg xmlns="http://www.w3.org/2000/svg" fill="none" viewBox="0 0 31 31"><path fill="#fff" d="M7.023 31V10.56H.666V31h6.357ZM3.811 7.826c2.05 0 3.691-1.709 3.691-3.76 0-1.982-1.64-3.623-3.691-3.623C1.828.443.188 2.084.188 4.066c0 2.051 1.64 3.76 3.623 3.76ZM30.744 31h.069V19.79c0-5.47-1.231-9.708-7.657-9.708-3.076 0-5.127 1.709-6.015 3.281h-.069V10.56h-6.084V31h6.358V20.883c0-2.666.478-5.195 3.76-5.195 3.28 0 3.35 3.007 3.35 5.4V31h6.288Z"/></svg>
